images/3233936.svg

<?xml version="1.0" encoding="UTF-8"?>
<svg xmlns="http://www.w3.org/2000/svg" xmlns:xlink="http://www.w3.org/1999/xlink" width="300pt" height="300pt" viewBox="0 0 300 300" version="1.1">
<defs>
<g>
<symbol overflow="visible" id="glyph0-0">
<path style="stroke:none;" d="M 0.453125 1.59375 L 0.453125 -6.34375 L 4.953125 -6.34375 L 4.953125 1.59375 Z M 0.953125 1.09375 L 4.453125 1.09375 L 4.453125 -5.84375 L 0.953125 -5.84375 Z M 0.953125 1.09375 "/>
</symbol>
<symbol overflow="visible" id="glyph0-1">
<path style="stroke:none;" d="M 0.890625 -6.5625 L 2.078125 -6.5625 L 4.984375 -1.078125 L 4.984375 -6.5625 L 5.84375 -6.5625 L 5.84375 0 L 4.65625 0 L 1.75 -5.484375 L 1.75 0 L 0.890625 0 Z M 0.890625 -6.5625 "/>
</symbol>
<symbol overflow="visible" id="glyph0-2">
<path style="stroke:none;" d="M 3.546875 -5.953125 C 2.898438 -5.953125 2.382812 -5.710938 2 -5.234375 C 1.625 -4.753906 1.4375 -4.101562 1.4375 -3.28125 C 1.4375 -2.445312 1.625 -1.789062 2 -1.3125 C 2.382812 -0.832031 2.898438 -0.59375 3.546875 -0.59375 C 4.191406 -0.59375 4.703125 -0.832031 5.078125 -1.3125 C 5.453125 -1.789062 5.640625 -2.445312 5.640625 -3.28125 C 5.640625 -4.101562 5.453125 -4.753906 5.078125 -5.234375 C 4.703125 -5.710938 4.191406 -5.953125 3.546875 -5.953125 Z M 3.546875 -6.6875 C 4.460938 -6.6875 5.195312 -6.375 5.75 -5.75 C 6.300781 -5.132812 6.578125 -4.3125 6.578125 -3.28125 C 6.578125 -2.238281 6.300781 -1.410156 5.75 -0.796875 C 5.195312 -0.179688 4.460938 0.125 3.546875 0.125 C 2.617188 0.125 1.878906 -0.179688 1.328125 -0.796875 C 0.773438 -1.410156 0.5 -2.238281 0.5 -3.28125 C 0.5 -4.3125 0.773438 -5.132812 1.328125 -5.75 C 1.878906 -6.375 2.617188 -6.6875 3.546875 -6.6875 Z M 3.546875 -6.6875 "/>
</symbol>
<symbol overflow="visible" id="glyph0-3">
<path style="stroke:none;" d="M 0.890625 -6.5625 L 1.765625 -6.5625 L 1.765625 -3.875 L 5 -3.875 L 5 -6.5625 L 5.890625 -6.5625 L 5.890625 0 L 5 0 L 5 -3.125 L 1.765625 -3.125 L 1.765625 0 L 0.890625 0 Z M 0.890625 -6.5625 "/>
</symbol>
<symbol overflow="visible" id="glyph0-4">
<path style="stroke:none;" d="M 0.890625 -6.5625 L 4.65625 -6.5625 L 4.65625 -5.8125 L 1.765625 -5.8125 L 1.765625 -3.875 L 4.375 -3.875 L 4.375 -3.140625 L 1.765625 -3.140625 L 1.765625 0 L 0.890625 0 Z M 0.890625 -6.5625 "/>
</symbol>
</g>
</defs>
<g id="surface39277">
<rect x="0" y="0" width="300" height="300" style="fill:rgb(100%,100%,100%);fill-opacity:1;stroke:none;"/>
<path style="fill:none;stroke-width:1.2;stroke-linecap:butt;stroke-linejoin:miter;stroke:rgb(0%,0%,0%);stroke-opacity:1;stroke-miterlimit:10;" d="M 143.953125 201.859375 L 123.714844 194.996094 "/>
<path style="fill:none;stroke-width:1.2;stroke-linecap:butt;stroke-linejoin:miter;stroke:rgb(0%,0%,0%);stroke-opacity:1;stroke-miterlimit:10;" d="M 160.015625 187.765625 L 143.953125 201.859375 "/>
<path style="fill:none;stroke-width:1.2;stroke-linecap:butt;stroke-linejoin:miter;stroke:rgb(0%,0%,0%);stroke-opacity:1;stroke-miterlimit:10;" d="M 123.714844 194.996094 L 119.542969 174.035156 "/>
<path style="fill:none;stroke-width:1.2;stroke-linecap:butt;stroke-linejoin:miter;stroke:rgb(0%,0%,0%);stroke-opacity:1;stroke-miterlimit:10;" d="M 119.542969 174.035156 L 115.371094 153.078125 "/>
<path style="fill:none;stroke-width:1.2;stroke-linecap:butt;stroke-linejoin:miter;stroke:rgb(0%,0%,0%);stroke-opacity:1;stroke-miterlimit:10;" d="M 119.542969 174.035156 L 135.605469 159.941406 "/>
<path style="fill:none;stroke-width:1.2;stroke-linecap:butt;stroke-linejoin:miter;stroke:rgb(0%,0%,0%);stroke-opacity:1;stroke-miterlimit:10;" d="M 103.476562 188.128906 L 119.542969 174.035156 "/>
<path style="fill:none;stroke-width:1.2;stroke-linecap:butt;stroke-linejoin:miter;stroke:rgb(0%,0%,0%);stroke-opacity:1;stroke-miterlimit:10;" d="M 115.371094 153.078125 L 95.132812 146.210938 "/>
<path style="fill:none;stroke-width:1.2;stroke-linecap:butt;stroke-linejoin:miter;stroke:rgb(0%,0%,0%);stroke-opacity:1;stroke-miterlimit:10;" d="M 95.132812 146.210938 L 87.101562 153.257812 "/>
<path style="fill:none;stroke-width:1.2;stroke-linecap:butt;stroke-linejoin:miter;stroke:rgb(0%,0%,100%);stroke-opacity:1;stroke-miterlimit:10;" d="M 87.101562 153.257812 L 79.066406 160.304688 "/>
<path style="fill:none;stroke-width:1.2;stroke-linecap:butt;stroke-linejoin:miter;stroke:rgb(0%,0%,100%);stroke-opacity:1;stroke-miterlimit:10;" d="M 79.066406 160.304688 L 81.152344 170.78125 "/>
<path style="fill:none;stroke-width:1.2;stroke-linecap:butt;stroke-linejoin:miter;stroke:rgb(0%,0%,0%);stroke-opacity:1;stroke-miterlimit:10;" d="M 81.152344 170.78125 L 83.242188 181.261719 "/>
<path style="fill:none;stroke-width:1.2;stroke-linecap:butt;stroke-linejoin:miter;stroke:rgb(0%,0%,100%);stroke-opacity:1;stroke-miterlimit:10;" d="M 79.066406 160.304688 L 68.949219 156.871094 "/>
<path style="fill:none;stroke-width:1.2;stroke-linecap:butt;stroke-linejoin:miter;stroke:rgb(0%,0%,0%);stroke-opacity:1;stroke-miterlimit:10;" d="M 68.949219 156.871094 L 58.832031 153.4375 "/>
<path style=" stroke:none;fill-rule:nonzero;fill:rgb(100%,100%,100%);fill-opacity:1;" d="M 76.066406 154.804688 L 83.066406 154.804688 L 83.066406 165.804688 L 76.066406 165.804688 Z M 76.066406 154.804688 "/>
<g style="fill:rgb(0%,0%,100%);fill-opacity:1;">
  <use xlink:href="#glyph0-1" x="76.066406" y="163.467773"/>
</g>
<path style="fill:none;stroke-width:1.2;stroke-linecap:butt;stroke-linejoin:miter;stroke:rgb(0%,0%,0%);stroke-opacity:1;stroke-miterlimit:10;" d="M 83.242188 181.261719 L 103.476562 188.128906 "/>
<path style="fill:none;stroke-width:1.2;stroke-linecap:butt;stroke-linejoin:miter;stroke:rgb(0%,0%,0%);stroke-opacity:1;stroke-miterlimit:10;" d="M 57.171875 151.546875 L 49.140625 158.59375 "/>
<path style="fill:none;stroke-width:1.2;stroke-linecap:butt;stroke-linejoin:miter;stroke:rgb(100%,0%,0%);stroke-opacity:1;stroke-miterlimit:10;" d="M 49.140625 158.59375 L 41.109375 165.640625 "/>
<path style="fill:none;stroke-width:1.2;stroke-linecap:butt;stroke-linejoin:miter;stroke:rgb(0%,0%,0%);stroke-opacity:1;stroke-miterlimit:10;" d="M 60.488281 155.328125 L 52.457031 162.375 "/>
<path style="fill:none;stroke-width:1.2;stroke-linecap:butt;stroke-linejoin:miter;stroke:rgb(100%,0%,0%);stroke-opacity:1;stroke-miterlimit:10;" d="M 52.457031 162.375 L 44.425781 169.421875 "/>
<path style="fill:none;stroke-width:1.2;stroke-linecap:butt;stroke-linejoin:miter;stroke:rgb(0%,0%,0%);stroke-opacity:1;stroke-miterlimit:10;" d="M 58.832031 153.4375 L 54.660156 132.476562 "/>
<path style=" stroke:none;fill-rule:nonzero;fill:rgb(100%,100%,100%);fill-opacity:1;" d="M 34.765625 162.03125 L 42.765625 162.03125 L 42.765625 173.03125 L 34.765625 173.03125 Z M 34.765625 162.03125 "/>
<g style="fill:rgb(100%,0%,0%);fill-opacity:1;">
  <use xlink:href="#glyph0-2" x="34.765625" y="170.694336"/>
</g>
<path style="fill:none;stroke-width:1.2;stroke-linecap:butt;stroke-linejoin:miter;stroke:rgb(0%,0%,0%);stroke-opacity:1;stroke-miterlimit:10;" d="M 54.660156 132.476562 L 35.25 123.535156 "/>
<path style="fill:none;stroke-width:1.2;stroke-linecap:butt;stroke-linejoin:miter;stroke:rgb(0%,0%,0%);stroke-opacity:1;stroke-miterlimit:10;" d="M 54.820312 127.015625 L 39.296875 119.863281 "/>
<path style="fill:none;stroke-width:1.2;stroke-linecap:butt;stroke-linejoin:miter;stroke:rgb(100%,0%,0%);stroke-opacity:1;stroke-miterlimit:10;" d="M 69.164062 116.785156 L 61.910156 124.628906 "/>
<path style="fill:none;stroke-width:1.2;stroke-linecap:butt;stroke-linejoin:miter;stroke:rgb(0%,0%,0%);stroke-opacity:1;stroke-miterlimit:10;" d="M 61.910156 124.628906 L 54.660156 132.476562 "/>
<path style="fill:none;stroke-width:1.2;stroke-linecap:butt;stroke-linejoin:miter;stroke:rgb(0%,0%,0%);stroke-opacity:1;stroke-miterlimit:10;" d="M 35.25 123.535156 L 37.757812 102.3125 "/>
<path style="fill:none;stroke-width:1.2;stroke-linecap:butt;stroke-linejoin:miter;stroke:rgb(0%,0%,0%);stroke-opacity:1;stroke-miterlimit:10;" d="M 37.757812 102.3125 L 58.71875 98.140625 "/>
<path style="fill:none;stroke-width:1.2;stroke-linecap:butt;stroke-linejoin:miter;stroke:rgb(0%,0%,0%);stroke-opacity:1;stroke-miterlimit:10;" d="M 40.835938 106.828125 L 57.601562 103.488281 "/>
<path style="fill:none;stroke-width:1.2;stroke-linecap:butt;stroke-linejoin:miter;stroke:rgb(0%,0%,0%);stroke-opacity:1;stroke-miterlimit:10;" d="M 58.71875 98.140625 L 63.941406 107.460938 "/>
<path style="fill:none;stroke-width:1.2;stroke-linecap:butt;stroke-linejoin:miter;stroke:rgb(100%,0%,0%);stroke-opacity:1;stroke-miterlimit:10;" d="M 63.941406 107.460938 L 69.164062 116.785156 "/>
<path style=" stroke:none;fill-rule:nonzero;fill:rgb(100%,100%,100%);fill-opacity:1;" d="M 65.164062 111.285156 L 73.164062 111.285156 L 73.164062 122.285156 L 65.164062 122.285156 Z M 65.164062 111.285156 "/>
<g style="fill:rgb(100%,0%,0%);fill-opacity:1;">
  <use xlink:href="#glyph0-2" x="65.164062" y="119.948242"/>
</g>
<path style="fill:none;stroke-width:1.2;stroke-linecap:butt;stroke-linejoin:miter;stroke:rgb(0%,0%,0%);stroke-opacity:1;stroke-miterlimit:10;" d="M 135.605469 159.941406 L 145.726562 163.375 "/>
<path style="fill:none;stroke-width:1.2;stroke-linecap:butt;stroke-linejoin:miter;stroke:rgb(0%,0%,100%);stroke-opacity:1;stroke-miterlimit:10;" d="M 145.726562 163.375 L 155.84375 166.808594 "/>
<path style="fill:none;stroke-width:1.2;stroke-linecap:butt;stroke-linejoin:miter;stroke:rgb(0%,0%,100%);stroke-opacity:1;stroke-miterlimit:10;" d="M 155.84375 166.808594 L 157.929688 177.289062 "/>
<path style="fill:none;stroke-width:1.2;stroke-linecap:butt;stroke-linejoin:miter;stroke:rgb(0%,0%,0%);stroke-opacity:1;stroke-miterlimit:10;" d="M 157.929688 177.289062 L 160.015625 187.765625 "/>
<path style="fill:none;stroke-width:1.2;stroke-linecap:butt;stroke-linejoin:miter;stroke:rgb(0%,0%,100%);stroke-opacity:1;stroke-miterlimit:10;" d="M 155.84375 166.808594 L 163.875 159.761719 "/>
<path style="fill:none;stroke-width:1.2;stroke-linecap:butt;stroke-linejoin:miter;stroke:rgb(0%,0%,0%);stroke-opacity:1;stroke-miterlimit:10;" d="M 163.875 159.761719 L 171.910156 152.714844 "/>
<path style=" stroke:none;fill-rule:nonzero;fill:rgb(100%,100%,100%);fill-opacity:1;" d="M 152.84375 161.308594 L 159.84375 161.308594 L 159.84375 172.308594 L 152.84375 172.308594 Z M 152.84375 161.308594 "/>
<g style="fill:rgb(0%,0%,100%);fill-opacity:1;">
  <use xlink:href="#glyph0-1" x="152.84375" y="169.97168"/>
</g>
<path style="fill:none;stroke-width:1.2;stroke-linecap:butt;stroke-linejoin:miter;stroke:rgb(0%,0%,0%);stroke-opacity:1;stroke-miterlimit:10;" d="M 174.375 152.226562 L 172.289062 141.746094 "/>
<path style="fill:none;stroke-width:1.2;stroke-linecap:butt;stroke-linejoin:miter;stroke:rgb(100%,0%,0%);stroke-opacity:1;stroke-miterlimit:10;" d="M 172.289062 141.746094 L 170.203125 131.265625 "/>
<path style="fill:none;stroke-width:1.2;stroke-linecap:butt;stroke-linejoin:miter;stroke:rgb(0%,0%,0%);stroke-opacity:1;stroke-miterlimit:10;" d="M 169.441406 153.207031 L 167.355469 142.726562 "/>
<path style="fill:none;stroke-width:1.2;stroke-linecap:butt;stroke-linejoin:miter;stroke:rgb(100%,0%,0%);stroke-opacity:1;stroke-miterlimit:10;" d="M 167.355469 142.726562 L 165.269531 132.246094 "/>
<path style="fill:none;stroke-width:1.2;stroke-linecap:butt;stroke-linejoin:miter;stroke:rgb(0%,0%,0%);stroke-opacity:1;stroke-miterlimit:10;" d="M 171.910156 152.714844 L 182.027344 156.148438 "/>
<path style="fill:none;stroke-width:1.2;stroke-linecap:butt;stroke-linejoin:miter;stroke:rgb(0%,0%,100%);stroke-opacity:1;stroke-miterlimit:10;" d="M 182.027344 156.148438 L 192.144531 159.582031 "/>
<path style=" stroke:none;fill-rule:nonzero;fill:rgb(100%,100%,100%);fill-opacity:1;" d="M 163.738281 126.257812 L 171.738281 126.257812 L 171.738281 137.257812 L 163.738281 137.257812 Z M 163.738281 126.257812 "/>
<g style="fill:rgb(100%,0%,0%);fill-opacity:1;">
  <use xlink:href="#glyph0-2" x="163.738281" y="134.920898"/>
</g>
<path style="fill:none;stroke-width:1.2;stroke-linecap:butt;stroke-linejoin:miter;stroke:rgb(0%,0%,100%);stroke-opacity:1;stroke-miterlimit:10;" d="M 192.144531 159.582031 L 200.179688 152.535156 "/>
<path style="fill:none;stroke-width:1.2;stroke-linecap:butt;stroke-linejoin:miter;stroke:rgb(0%,0%,0%);stroke-opacity:1;stroke-miterlimit:10;" d="M 200.179688 152.535156 L 208.210938 145.488281 "/>
<path style=" stroke:none;fill-rule:nonzero;fill:rgb(100%,100%,100%);fill-opacity:1;" d="M 185.144531 154.082031 L 199.144531 154.082031 L 199.144531 165.082031 L 185.144531 165.082031 Z M 185.144531 154.082031 "/>
<g style="fill:rgb(0%,0%,100%);fill-opacity:1;">
  <use xlink:href="#glyph0-1" x="185.144531" y="162.745117"/>
  <use xlink:href="#glyph0-3" x="192.12207" y="162.745117"/>
</g>
<path style="fill:none;stroke-width:1.2;stroke-linecap:butt;stroke-linejoin:miter;stroke:rgb(0%,0%,0%);stroke-opacity:1;stroke-miterlimit:10;" d="M 208.210938 145.488281 L 228.449219 152.355469 "/>
<path style="fill:none;stroke-width:1.2;stroke-linecap:butt;stroke-linejoin:miter;stroke:rgb(0%,0%,0%);stroke-opacity:1;stroke-miterlimit:10;" d="M 211.851562 141.414062 L 228.039062 146.90625 "/>
<path style="fill:none;stroke-width:1.2;stroke-linecap:butt;stroke-linejoin:miter;stroke:rgb(0%,0%,0%);stroke-opacity:1;stroke-miterlimit:10;" d="M 204.039062 124.53125 L 208.210938 145.488281 "/>
<path style="fill:none;stroke-width:1.2;stroke-linecap:butt;stroke-linejoin:miter;stroke:rgb(0%,0%,0%);stroke-opacity:1;stroke-miterlimit:10;" d="M 228.449219 152.355469 L 244.511719 138.261719 "/>
<path style="fill:none;stroke-width:1.2;stroke-linecap:butt;stroke-linejoin:miter;stroke:rgb(0%,0%,0%);stroke-opacity:1;stroke-miterlimit:10;" d="M 244.511719 138.261719 L 240.339844 117.304688 "/>
<path style="fill:none;stroke-width:1.2;stroke-linecap:butt;stroke-linejoin:miter;stroke:rgb(0%,0%,0%);stroke-opacity:1;stroke-miterlimit:10;" d="M 239.164062 137.148438 L 235.828125 120.382812 "/>
<path style="fill:none;stroke-width:1.2;stroke-linecap:butt;stroke-linejoin:miter;stroke:rgb(0%,0%,0%);stroke-opacity:1;stroke-miterlimit:10;" d="M 244.511719 138.261719 L 254.632812 141.695312 "/>
<path style="fill:none;stroke-width:1.2;stroke-linecap:butt;stroke-linejoin:miter;stroke:rgb(20%,80%,80%);stroke-opacity:1;stroke-miterlimit:10;" d="M 254.632812 141.695312 L 264.75 145.128906 "/>
<path style="fill:none;stroke-width:1.2;stroke-linecap:butt;stroke-linejoin:miter;stroke:rgb(0%,0%,0%);stroke-opacity:1;stroke-miterlimit:10;" d="M 240.339844 117.304688 L 220.101562 110.4375 "/>
<path style="fill:none;stroke-width:1.2;stroke-linecap:butt;stroke-linejoin:miter;stroke:rgb(0%,0%,0%);stroke-opacity:1;stroke-miterlimit:10;" d="M 220.101562 110.4375 L 204.039062 124.53125 "/>
<path style="fill:none;stroke-width:1.2;stroke-linecap:butt;stroke-linejoin:miter;stroke:rgb(0%,0%,0%);stroke-opacity:1;stroke-miterlimit:10;" d="M 221.8125 115.625 L 208.960938 126.902344 "/>
<path style=" stroke:none;fill-rule:nonzero;fill:rgb(100%,100%,100%);fill-opacity:1;" d="M 261.75 139.628906 L 267.75 139.628906 L 267.75 150.628906 L 261.75 150.628906 Z M 261.75 139.628906 "/>
<g style="fill:rgb(20%,80%,80%);fill-opacity:1;">
  <use xlink:href="#glyph0-4" x="261.75" y="148.291992"/>
</g>
</g>
</svg>

<svg xmlns="http://www.w3.org/2000/svg" xmlns:xlink="http://www.w3.org/1999/xlink" width="300pt" height="300pt" viewBox="0 0 300 300"><defs><symbol overflow="visible"><path d="M.453 1.594v-7.938h4.5v7.938zm.5-.5h3.5v-6.938h-3.5zm0 0"/></symbol><symbol overflow="visible" id="a"><path d="M.89-6.563H2.08l2.906 5.485v-5.484h.86V0H4.656L1.75-5.484V0H.89zm0 0"/></symbol><symbol overflow="visible" id="b"><path d="M3.547-5.953c-.65 0-1.164.242-1.547.72-.375.48-.563 1.13-.563 1.952 0 .835.188 1.49.563 1.967.383.48.898.72 1.547.72.644 0 1.156-.24 1.53-.72.376-.476.564-1.132.564-1.968 0-.822-.187-1.474-.562-1.954-.375-.477-.887-.72-1.53-.72zm0-.734c.914 0 1.648.312 2.203.937.55.617.828 1.438.828 2.47 0 1.042-.277 1.87-.828 2.483-.555.617-1.29.922-2.203.922-.93 0-1.668-.305-2.22-.922C.774-1.41.5-2.237.5-3.28c0-1.033.273-1.853.828-2.47.55-.625 1.29-.938 2.22-.938zm0 0"/></symbol><symbol overflow="visible" id="c"><path d="M.89-6.563h.876v2.688H5v-2.688h.89V0H5v-3.125H1.766V0H.89zm0 0"/></symbol><symbol overflow="visible" id="d"><path d="M.89-6.563h3.766v.75h-2.89v1.938h2.61v.734h-2.61V0H.89zm0 0"/></symbol></defs><g><path fill="#fff" d="M0 0h300v300H0z"/><path d="M143.953 201.86l-20.238-6.864M160.016 187.766l-16.063 14.093M123.715 194.996l-4.172-20.96M119.543 174.035l-4.172-20.957M119.543 174.035l16.062-14.094M103.477 188.13l16.066-14.095M115.37 153.078l-20.237-6.867M95.133 146.21l-8.03 7.048" stroke-width="1.2" stroke="#000" stroke-miterlimit="10" fill="none"/><path d="M87.102 153.258l-8.036 7.047M79.066 160.305l2.086 10.476" stroke-width="1.2" stroke="#00f" stroke-miterlimit="10" fill="none"/><path d="M81.152 170.78l2.09 10.482" stroke-width="1.2" stroke="#000" stroke-miterlimit="10" fill="none"/><path d="M79.066 160.305L68.95 156.87" stroke-width="1.2" stroke="#00f" stroke-miterlimit="10" fill="none"/><path d="M68.95 156.87l-10.118-3.433" stroke-width="1.2" stroke="#000" stroke-miterlimit="10" fill="none"/><path d="M76.066 154.805h7v11h-7zm0 0" fill="#fff"/><use xlink:href="#a" x="76.066" y="163.468" fill="#00f"/><path d="M83.242 181.262l20.235 6.867M57.172 151.547l-8.03 7.047" stroke-width="1.2" stroke="#000" stroke-miterlimit="10" fill="none"/><path d="M49.14 158.594l-8.03 7.047" stroke-width="1.2" stroke="#f00" stroke-miterlimit="10" fill="none"/><path d="M60.488 155.328l-8.03 7.047" stroke-width="1.2" stroke="#000" stroke-miterlimit="10" fill="none"/><path d="M52.457 162.375l-8.03 7.047" stroke-width="1.2" stroke="#f00" stroke-miterlimit="10" fill="none"/><path d="M58.832 153.438l-4.172-20.96" stroke-width="1.2" stroke="#000" stroke-miterlimit="10" fill="none"/><path d="M34.766 162.03h8v11h-8zm0 0" fill="#fff"/><use xlink:href="#b" x="34.766" y="170.694" fill="#f00"/><path d="M54.66 132.477l-19.41-8.942M54.82 127.016l-15.523-7.153" stroke-width="1.2" stroke="#000" stroke-miterlimit="10" fill="none"/><path d="M69.164 116.785l-7.254 7.844" stroke-width="1.2" stroke="#f00" stroke-miterlimit="10" fill="none"/><path d="M61.91 124.63l-7.25 7.847M35.25 123.535l2.508-21.222M37.758 102.313l20.96-4.172M40.836 106.828l16.766-3.34M58.72 98.14l5.22 9.32" stroke-width="1.2" stroke="#000" stroke-miterlimit="10" fill="none"/><path d="M63.94 107.46l5.224 9.325" stroke-width="1.2" stroke="#f00" stroke-miterlimit="10" fill="none"/><path d="M65.164 111.285h8v11h-8zm0 0" fill="#fff"/><use xlink:href="#b" x="65.164" y="119.948" fill="#f00"/><path d="M135.605 159.94l10.122 3.435" stroke-width="1.2" stroke="#000" stroke-miterlimit="10" fill="none"/><path d="M145.727 163.375l10.117 3.434M155.844 166.81l2.086 10.48" stroke-width="1.2" stroke="#00f" stroke-miterlimit="10" fill="none"/><path d="M157.93 177.29l2.086 10.476" stroke-width="1.2" stroke="#000" stroke-miterlimit="10" fill="none"/><path d="M155.844 166.81l8.03-7.048" stroke-width="1.2" stroke="#00f" stroke-miterlimit="10" fill="none"/><path d="M163.875 159.762l8.035-7.047" stroke-width="1.2" stroke="#000" stroke-miterlimit="10" fill="none"/><path d="M152.844 161.31h7v11h-7zm0 0" fill="#fff"/><use xlink:href="#a" x="152.844" y="169.972" fill="#00f"/><path d="M174.375 152.227l-2.086-10.48" stroke-width="1.2" stroke="#000" stroke-miterlimit="10" fill="none"/><path d="M172.29 141.746l-2.087-10.48" stroke-width="1.2" stroke="#f00" stroke-miterlimit="10" fill="none"/><path d="M169.44 153.207l-2.085-10.48" stroke-width="1.2" stroke="#000" stroke-miterlimit="10" fill="none"/><path d="M167.355 142.727l-2.085-10.48" stroke-width="1.2" stroke="#f00" stroke-miterlimit="10" fill="none"/><path d="M171.91 152.715l10.117 3.433" stroke-width="1.2" stroke="#000" stroke-miterlimit="10" fill="none"/><path d="M182.027 156.148l10.118 3.434" stroke-width="1.2" stroke="#00f" stroke-miterlimit="10" fill="none"/><path d="M163.738 126.258h8v11h-8zm0 0" fill="#fff"/><use xlink:href="#b" x="163.738" y="134.921" fill="#f00"/><path d="M192.145 159.582l8.035-7.047" stroke-width="1.2" stroke="#00f" stroke-miterlimit="10" fill="none"/><path d="M200.18 152.535l8.03-7.047" stroke-width="1.2" stroke="#000" stroke-miterlimit="10" fill="none"/><path d="M185.145 154.082h14v11h-14zm0 0" fill="#fff"/><g fill="#00f"><use xlink:href="#a" x="185.145" y="162.745"/><use xlink:href="#c" x="192.122" y="162.745"/></g><path d="M208.21 145.488l20.24 6.867M211.852 141.414l16.187 5.492M204.04 124.53l4.17 20.958M228.45 152.355l16.062-14.093M244.512 138.262l-4.172-20.957M239.164 137.148l-3.336-16.765M244.512 138.262l10.12 3.433" stroke-width="1.2" stroke="#000" stroke-miterlimit="10" fill="none"/><path d="M254.633 141.695l10.117 3.434" stroke-width="1.2" stroke="#3cc" stroke-miterlimit="10" fill="none"/><path d="M240.34 117.305l-20.238-6.868M220.102 110.438L204.04 124.53M221.813 115.625l-12.852 11.277" stroke-width="1.2" stroke="#000" stroke-miterlimit="10" fill="none"/><path d="M261.75 139.63h6v11h-6zm0 0" fill="#fff"/><use xlink:href="#d" x="261.75" y="148.292" fill="#3cc"/></g></svg>
